Sweet-Rainbow/icons/applications-games.svg

<?xml version="1.0" encoding="UTF-8" standalone="no"?>
<!-- Generator: Gravit.io -->

<svg
   xmlns:dc="http://purl.org/dc/elements/1.1/"
   xmlns:cc="http://creativecommons.org/ns#"
   xmlns:rdf="http://www.w3.org/1999/02/22-rdf-syntax-ns#"
   xmlns:svg="http://www.w3.org/2000/svg"
   xmlns="http://www.w3.org/2000/svg"
   xmlns:sodipodi="http://sodipodi.sourceforge.net/DTD/sodipodi-0.dtd"
   xmlns:inkscape="http://www.inkscape.org/namespaces/inkscape"
   style="isolation:isolate"
   viewBox="0 0 36 36"
   width="48"
   height="48"
   version="1.1"
   id="svg9"
   sodipodi:docname="applications-games.svg"
   inkscape:version="0.92.4 (5da689c313, 2019-01-14)">
  <metadata
     id="metadata15">
    <rdf:RDF>
      <cc:Work
         rdf:about="">
        <dc:format>image/svg+xml</dc:format>
        <dc:type
           rdf:resource="http://purl.org/dc/dcmitype/StillImage" />
        <dc:title></dc:title>
      </cc:Work>
    </rdf:RDF>
  </metadata>
  <defs
     id="defs13" />
  <sodipodi:namedview
     pagecolor="#ffffff"
     bordercolor="#666666"
     borderopacity="1"
     objecttolerance="10"
     gridtolerance="10"
     guidetolerance="10"
     inkscape:pageopacity="0"
     inkscape:pageshadow="2"
     inkscape:window-width="640"
     inkscape:window-height="480"
     id="namedview11"
     showgrid="false"
     inkscape:zoom="29.365243"
     inkscape:cx="25.325443"
     inkscape:cy="32"
     inkscape:current-layer="svg9"
     units="px" />
  <linearGradient
     id="_lgradient_4"
     x1="0.5819639"
     y1="0.77831072"
     x2="0.27618945"
     y2="0.32136112"
     gradientTransform="matrix(44.663,0,0,32,1.668,8.433)"
     gradientUnits="userSpaceOnUse">
    <stop
       offset="0%"
       stop-opacity="1"
       style="stop-color:rgb(27,206,137)"
       id="stop2" />
    <stop
       offset="100%"
       stop-opacity="1"
       style="stop-color:rgb(78,142,213)"
       id="stop4" />
  </linearGradient>
  <g
     id="g826"
     transform="matrix(0.80603841,0,0,0.80603841,-1.3449218,-1.6939365)">
    <path
       id="path7"
       d="m 19.957,27.825 v 0 c 0.832,0 1.508,0.676 1.508,1.508 v 0 c 0,0.832 -0.676,1.507 -1.508,1.507 v 0 h -6.246 c -0.416,0 -0.855,0.322 -0.979,0.719 l -1.659,5.279 c -0.624,1.984 -2.819,3.595 -4.899,3.595 H 5.156 c -2.08,0 -3.637,-1.683 -3.476,-3.757 L 3.151,17.761 c 0.161,-2.074 1.125,-5.005 2.15,-6.543 v 0 C 6.327,9.681 8.848,8.433 10.928,8.433 H 25.37 v 0 c 0.832,0 1.508,0.676 1.508,1.508 v 0 c 0,0.832 -0.676,1.507 -1.508,1.507 v 0 H 11.033 c -1.248,0 -2.779,0.779 -3.418,1.738 v 0 C 6.977,14.145 6.366,15.932 6.252,17.175 L 4.54,35.917 c -0.076,0.829 0.538,1.501 1.37,1.501 H 6.4 c 0.832,0 1.71,-0.644 1.959,-1.438 l 1.886,-5.998 c 0.374,-1.19 1.691,-2.157 2.939,-2.157 z M 32.702,11.448 v 0 c -0.832,0 -1.507,-0.675 -1.507,-1.507 v 0 c 0,-0.832 0.675,-1.508 1.507,-1.508 v 0 h 4.37 c 2.08,0 4.601,1.248 5.627,2.785 v 0 c 1.025,1.538 1.989,4.469 2.15,6.543 l 1.471,18.915 c 0.161,2.074 -1.396,3.757 -3.476,3.757 h -1.606 c -2.08,0 -4.489,-1.527 -5.376,-3.409 L 33.268,31.522 C 33.091,31.146 32.609,30.84 32.193,30.84 h -5.932 v 0 c -0.832,0 -1.507,-0.675 -1.507,-1.507 v 0 c 0,-0.832 0.675,-1.508 1.507,-1.508 v 0 h 6.882 c 0.832,0 1.795,0.611 2.15,1.364 l 3.237,6.866 c 0.355,0.752 1.318,1.363 2.15,1.363 h 1.41 c 0.832,0 1.446,-0.672 1.37,-1.501 L 41.748,17.175 c -0.114,-1.243 -0.725,-3.03 -1.363,-3.989 v 0 c -0.639,-0.959 -2.17,-1.738 -3.418,-1.738 z m -22.408,7.22 v 1.972 h 2.476 c 0.403,0 0.73,0.327 0.73,0.73 v 2.476 h 1.971 v -2.477 c 0,-0.403 0.327,-0.73 0.73,-0.73 h 2.477 v -1.97 h -2.477 c -0.403,0 -0.73,-0.327 -0.73,-0.73 V 15.462 H 13.5 v 2.476 c 0,0.403 -0.327,0.73 -0.73,0.73 z M 35.02,19.43 c 0,-0.828 0.672,-1.5 1.5,-1.5 0.828,0 1.5,0.672 1.5,1.5 0,0.828 -0.672,1.5 -1.5,1.5 -0.828,0 -1.5,-0.672 -1.5,-1.5 z m -6,0 c 0,-0.828 0.672,-1.5 1.5,-1.5 0.828,0 1.5,0.672 1.5,1.5 0,0.828 -0.672,1.5 -1.5,1.5 -0.828,0 -1.5,-0.672 -1.5,-1.5 z m 4.5,-4.5 c 0.828,0 1.5,0.672 1.5,1.5 0,0.828 -0.672,1.5 -1.5,1.5 -0.828,0 -1.5,-0.672 -1.5,-1.5 0,-0.828 0.672,-1.5 1.5,-1.5 z M 12.77,14.001 h 3.431 c 0.403,0 0.73,0.327 0.73,0.73 v 2.477 h 2.477 c 0.403,0 0.73,0.327 0.73,0.73 v 3.431 l -0.001,0.001 v 0 c 0,0.403 -0.327,0.73 -0.73,0.729 H 16.93 v 2.477 c 0,0.403 -0.327,0.73 -0.729,0.73 H 12.77 c -0.403,0 -0.73,-0.327 -0.73,-0.73 V 22.099 H 9.564 c -0.403,0 -0.73,-0.326 -0.73,-0.729 v -3.431 c 0,-0.403 0.327,-0.73 0.73,-0.73 h 2.476 v -2.478 c 0,-0.403 0.327,-0.73 0.73,-0.73 z m 20.75,6.929 c 0.828,0 1.5,0.672 1.5,1.5 0,0.828 -0.672,1.5 -1.5,1.5 -0.828,0 -1.5,-0.672 -1.5,-1.5 0,-0.828 0.672,-1.5 1.5,-1.5 z"
       style="fill:url(#_lgradient_4);fill-rule:evenodd"
       inkscape:connector-curvature="0" />
  </g>
</svg>

<?xml version="1.0" encoding="UTF-8" standalone="no"?><!-- Generator: Gravit.io --><svg xmlns="http://www.w3.org/2000/svg" xmlns:xlink="http://www.w3.org/1999/xlink" style="isolation:isolate" viewBox="0 0 48 48" width="48pt" height="48pt"><linearGradient id="_lgradient_4" x1="0.5819638936634305" y1="0.7783106944169678" x2="0.2761894372629943" y2="0.32136112200255573" gradientTransform="matrix(44.663,0,0,32,1.668,8.433)" gradientUnits="userSpaceOnUse"><stop offset="0%" stop-opacity="1" style="stop-color:rgb(27,206,137)"/><stop offset="100%" stop-opacity="1" style="stop-color:rgb(78,142,213)"/></linearGradient><path d=" M 19.957 27.825 L 19.957 27.825 C 20.789 27.825 21.465 28.501 21.465 29.333 L 21.465 29.333 C 21.465 30.165 20.789 30.84 19.957 30.84 L 19.957 30.84 L 13.711 30.84 C 13.295 30.84 12.856 31.162 12.732 31.559 L 11.073 36.838 C 10.449 38.822 8.254 40.433 6.174 40.433 L 5.156 40.433 C 3.076 40.433 1.519 38.75 1.68 36.676 L 3.151 17.761 C 3.312 15.687 4.276 12.756 5.301 11.218 L 5.301 11.218 C 6.327 9.681 8.848 8.433 10.928 8.433 L 25.37 8.433 L 25.37 8.433 C 26.202 8.433 26.878 9.109 26.878 9.941 L 26.878 9.941 C 26.878 10.773 26.202 11.448 25.37 11.448 L 25.37 11.448 L 11.033 11.448 C 9.785 11.448 8.254 12.227 7.615 13.186 L 7.615 13.186 C 6.977 14.145 6.366 15.932 6.252 17.175 L 4.54 35.917 C 4.464 36.746 5.078 37.418 5.91 37.418 L 6.4 37.418 C 7.232 37.418 8.11 36.774 8.359 35.98 L 10.245 29.982 C 10.619 28.792 11.936 27.825 13.184 27.825 L 19.957 27.825 L 19.957 27.825 L 19.957 27.825 L 19.957 27.825 L 19.957 27.825 L 19.957 27.825 Z  M 32.702 11.448 L 32.702 11.448 C 31.87 11.448 31.195 10.773 31.195 9.941 L 31.195 9.941 C 31.195 9.109 31.87 8.433 32.702 8.433 L 32.702 8.433 L 37.072 8.433 C 39.152 8.433 41.673 9.681 42.699 11.218 L 42.699 11.218 C 43.724 12.756 44.688 15.687 44.849 17.761 L 46.32 36.676 C 46.481 38.75 44.924 40.433 42.844 40.433 L 41.238 40.433 C 39.158 40.433 36.749 38.906 35.862 37.024 L 33.268 31.522 C 33.091 31.146 32.609 30.84 32.193 30.84 L 26.261 30.84 L 26.261 30.84 C 25.429 30.84 24.754 30.165 24.754 29.333 L 24.754 29.333 C 24.754 28.501 25.429 27.825 26.261 27.825 L 26.261 27.825 L 33.143 27.825 C 33.975 27.825 34.938 28.436 35.293 29.189 L 38.53 36.055 C 38.885 36.807 39.848 37.418 40.68 37.418 L 42.09 37.418 C 42.922 37.418 43.536 36.746 43.46 35.917 L 41.748 17.175 C 41.634 15.932 41.023 14.145 40.385 13.186 L 40.385 13.186 C 39.746 12.227 38.215 11.448 36.967 11.448 L 32.702 11.448 L 32.702 11.448 L 32.702 11.448 L 32.702 11.448 L 32.702 11.448 L 32.702 11.448 Z  M 10.294 18.668 L 10.294 20.64 L 12.77 20.64 C 13.173 20.64 13.5 20.967 13.5 21.37 L 13.5 23.846 L 15.471 23.846 L 15.471 21.369 C 15.471 20.966 15.798 20.639 16.201 20.639 L 18.678 20.639 L 18.678 18.669 L 16.201 18.669 C 15.798 18.669 15.471 18.342 15.471 17.939 L 15.471 15.462 L 13.5 15.462 L 13.5 17.938 C 13.5 18.341 13.173 18.668 12.77 18.668 L 10.294 18.668 L 10.294 18.668 L 10.294 18.668 L 10.294 18.668 L 10.294 18.668 L 10.294 18.668 Z  M 35.02 19.43 C 35.02 18.602 35.692 17.93 36.52 17.93 C 37.348 17.93 38.02 18.602 38.02 19.43 C 38.02 20.258 37.348 20.93 36.52 20.93 C 35.692 20.93 35.02 20.258 35.02 19.43 L 35.02 19.43 L 35.02 19.43 L 35.02 19.43 Z  M 29.02 19.43 C 29.02 18.602 29.692 17.93 30.52 17.93 C 31.348 17.93 32.02 18.602 32.02 19.43 C 32.02 20.258 31.348 20.93 30.52 20.93 C 29.692 20.93 29.02 20.258 29.02 19.43 L 29.02 19.43 L 29.02 19.43 Z  M 33.52 14.93 C 34.348 14.93 35.02 15.602 35.02 16.43 C 35.02 17.258 34.348 17.93 33.52 17.93 C 32.692 17.93 32.02 17.258 32.02 16.43 C 32.02 15.602 32.692 14.93 33.52 14.93 L 33.52 14.93 Z  M 12.77 14.001 L 16.201 14.001 C 16.604 14.001 16.931 14.328 16.931 14.731 L 16.931 17.208 L 19.408 17.208 C 19.811 17.208 20.138 17.535 20.138 17.938 L 20.138 21.369 L 20.137 21.37 L 20.137 21.37 C 20.137 21.773 19.81 22.1 19.407 22.099 L 16.93 22.099 L 16.93 24.576 C 16.93 24.979 16.603 25.306 16.201 25.306 L 12.77 25.306 C 12.367 25.306 12.04 24.979 12.04 24.576 L 12.04 22.099 L 9.564 22.099 C 9.161 22.099 8.834 21.773 8.834 21.37 L 8.834 17.939 C 8.834 17.536 9.161 17.209 9.564 17.209 L 12.04 17.209 L 12.04 14.731 C 12.04 14.328 12.367 14.001 12.77 14.001 L 12.77 14.001 L 12.77 14.001 L 12.77 14.001 L 12.77 14.001 L 12.77 14.001 Z  M 33.52 20.93 C 34.348 20.93 35.02 21.602 35.02 22.43 C 35.02 23.258 34.348 23.93 33.52 23.93 C 32.692 23.93 32.02 23.258 32.02 22.43 C 32.02 21.602 32.692 20.93 33.52 20.93 Z " fill-rule="evenodd" fill="url(#_lgradient_4)"/></svg>
